app/assets/images/money-bill-trend-up-solid.svg

<svg width="512" height="512" viewBox="0 0 512 512" fill="none" xmlns="http://www.w3.org/2000/svg">
<g clip-path="url(#clip0_36_63)">
<rect x="186" y="298" width="139" height="169" fill="#EA9757"/>
<rect x="23" y="298" width="139" height="169" fill="#EA9757"/>
<rect x="349" y="298" width="139" height="169" fill="#EA9757"/>
<path d="M470.7 9.4C473.7 12.5 476 16 477.6 19.7C479.2 23.4 480 27.5 480 31.9V32V128C480 145.7 465.7 160 448 160C430.3 160 416 145.7 416 128V109.3L310.6 214.6C298.8 226.4 279.8 227.2 267.1 216.3L176 138.1L84.8 216.3C71.4 227.8 51.2 226.2 39.7 212.8C28.2 199.4 29.8 179.2 43.2 167.7L155.2 71.7C167.2 61.4 184.9 61.4 196.9 71.7L286.4 148.4L370.7 64H352C334.3 64 320 49.7 320 32C320 14.3 334.3 0 352 0H448C456.8 0 464.8 3.6 470.6 9.3L470.7 9.4ZM0 304C0 277.5 21.5 256 48 256H464C490.5 256 512 277.5 512 304V464C512 490.5 490.5 512 464 512H48C21.5 512 0 490.5 0 464V304ZM48 416V464H96C96 437.5 74.5 416 48 416ZM96 304H48V352C74.5 352 96 330.5 96 304ZM464 416C437.5 416 416 437.5 416 464H464V416ZM416 304C416 330.5 437.5 352 464 352V304H416ZM320 384C320 367.026 313.257 350.748 301.255 338.745C289.252 326.743 272.974 320 256 320C239.026 320 222.747 326.743 210.745 338.745C198.743 350.748 192 367.026 192 384C192 400.974 198.743 417.252 210.745 429.255C222.747 441.257 239.026 448 256 448C272.974 448 289.252 441.257 301.255 429.255C313.257 417.252 320 400.974 320 384Z" fill="#EEC3C2"/>
</g>
<defs>
<clipPath id="clip0_36_63">
<rect width="512" height="512" fill="white"/>
</clipPath>
</defs>
</svg>

<svg xmlns="http://www.w3.org/2000/svg" viewBox="0 0 512 512"><!--!Font Awesome Free 6.5.1 by @fontawesome - https://fontawesome.com License - https://fontawesome.com/license/free Copyright 2024 Fonticons, Inc.--><path fill="#545454" d="M470.7 9.4c3 3.1 5.3 6.6 6.9 10.3s2.4 7.8 2.4 12.2l0 .1v0 96c0 17.7-14.3 32-32 32s-32-14.3-32-32V109.3L310.6 214.6c-11.8 11.8-30.8 12.6-43.5 1.7L176 138.1 84.8 216.3c-13.4 11.5-33.6 9.9-45.1-3.5s-9.9-33.6 3.5-45.1l112-96c12-10.3 29.7-10.3 41.7 0l89.5 76.7L370.7 64H352c-17.7 0-32-14.3-32-32s14.3-32 32-32h96 0c8.8 0 16.8 3.6 22.6 9.3l.1 .1zM0 304c0-26.5 21.5-48 48-48H464c26.5 0 48 21.5 48 48V464c0 26.5-21.5 48-48 48H48c-26.5 0-48-21.5-48-48V304zM48 416v48H96c0-26.5-21.5-48-48-48zM96 304H48v48c26.5 0 48-21.5 48-48zM464 416c-26.5 0-48 21.5-48 48h48V416zM416 304c0 26.5 21.5 48 48 48V304H416zm-96 80a64 64 0 1 0 -128 0 64 64 0 1 0 128 0z"/></svg>
